mobile/apps/auth/assets/custom-icons/icons/cssbuy.svg

<?xml version="1.0" encoding="UTF-8"?>
<!DOCTYPE svg PUBLIC "-//W3C//DTD SVG 1.1//EN" "http://www.w3.org/Graphics/SVG/1.1/DTD/svg11.dtd">
<svg xmlns="http://www.w3.org/2000/svg" version="1.1" width="200px" height="105px" style="shape-rendering:geometricPrecision; text-rendering:geometricPrecision; image-rendering:optimizeQuality; fill-rule:evenodd; clip-rule:evenodd" xmlns:xlink="http://www.w3.org/1999/xlink">
<g><path style="opacity:0.004" fill="#000000" d="M 5.5,5.5 C 4.83333,4.16667 4.83333,4.16667 5.5,5.5 Z"/></g>
<g><path style="opacity:0.634" fill="#bbdf9b" d="M 9.5,5.5 C 55.1679,5.33334 100.835,5.50001 146.5,6C 150.767,6.18939 154.767,7.02272 158.5,8.5C 107.852,7.52281 57.1858,7.18948 6.5,7.5C 7.5,6.83333 8.5,6.16667 9.5,5.5 Z"/></g>
<g><path style="opacity:1" fill="#79c332" d="M 6.5,7.5 C 57.1858,7.18948 107.852,7.52281 158.5,8.5C 158.833,8.5 159.167,8.5 159.5,8.5C 161.792,10.2671 164.458,11.2671 167.5,11.5C 168.167,11.5 168.833,11.5 169.5,11.5C 173.32,14.4702 177.32,17.3036 181.5,20C 183.439,21.4321 184.772,23.2654 185.5,25.5C 185.964,29.2603 187.631,32.4269 190.5,35C 191.606,37.489 192.606,39.989 193.5,42.5C 192.503,59.9921 192.17,77.6588 192.5,95.5C 144.997,95.1679 97.6637,95.5012 50.5,96.5C 48.8333,96.5 47.1667,96.5 45.5,96.5C 39.1599,95.4977 33.1599,93.4977 27.5,90.5C 23.0212,87.081 18.6878,83.4143 14.5,79.5C 11.9672,75.7678 9.96725,71.7678 8.5,67.5C 8.19596,64.4781 7.69596,61.4781 7,58.5C 6.50006,41.5033 6.3334,24.5033 6.5,7.5 Z M 82.5,42.5 C 79.8478,42.4095 77.5145,43.0762 75.5,44.5C 73.631,42.9663 72.2977,40.9663 71.5,38.5C 64.3777,33.5799 57.0444,33.2466 49.5,37.5C 48.8333,38.8333 47.8333,39.8333 46.5,40.5C 45.8897,42.4341 44.8897,44.1007 43.5,45.5C 40.7494,52.2465 40.9161,58.9132 44,65.5C 48.9683,71.1151 55.135,72.9484 62.5,71C 66.0277,68.467 69.1944,65.6336 72,62.5C 74.6292,63.209 77.1292,64.209 79.5,65.5C 78.3875,67.4192 77.0542,69.0858 75.5,70.5C 75.1412,72.371 74.1412,73.871 72.5,75C 69.0095,77.412 65.3429,79.2453 61.5,80.5C 56.453,80.6625 51.453,80.3292 46.5,79.5C 33.5306,71.7297 29.364,60.3964 34,45.5C 42.2681,27.297 55.7681,21.797 74.5,29C 79.3707,32.248 82.0374,36.748 82.5,42.5 Z M 121.5,29.5 C 122.496,29.4142 123.329,29.7476 124,30.5C 125.459,32.4319 126.625,34.4319 127.5,36.5C 127.5,37.8333 127.5,39.1667 127.5,40.5C 125.08,40.2924 122.747,40.6258 120.5,41.5C 119.818,40.7573 119.151,40.0906 118.5,39.5C 115.457,33.4977 110.79,31.9977 104.5,35C 99.1667,39 99.1667,43 104.5,47C 108.167,48.6667 111.833,50.3333 115.5,52C 117.063,52.7589 118.063,53.9256 118.5,55.5C 121.355,57.701 122.689,60.701 122.5,64.5C 122.372,69.7523 120.372,74.0857 116.5,77.5C 110.412,80.4755 104.079,81.1421 97.5,79.5C 95.5,78.8333 93.5,78.1667 91.5,77.5C 87.0609,73.5306 84.7276,68.5306 84.5,62.5C 87.4824,62.0371 90.4824,61.7038 93.5,61.5C 93.2155,63.4147 93.5489,65.0813 94.5,66.5C 94.427,68.0269 95.0937,69.0269 96.5,69.5C 97.0577,70.7899 98.0577,71.6232 99.5,72C 103.221,72.6781 106.888,72.5114 110.5,71.5C 114.5,67.5 114.5,63.5 110.5,59.5C 107.833,58.5 105.167,57.5 102.5,56.5C 91.205,50.9602 88.8717,42.9602 95.5,32.5C 96.0778,33.547 96.7445,33.3803 97.5,32C 97.2716,31.6012 96.9382,31.4346 96.5,31.5C 100.001,27.5043 104.501,25.5043 110,25.5C 112.856,25.8711 115.689,26.3711 118.5,27C 119.942,27.3768 120.942,28.2101 121.5,29.5 Z M 146.5,45.5 C 145.453,46.0778 145.62,46.7445 147,47.5C 147.399,47.2716 147.565,46.9382 147.5,46.5C 152.265,48.3815 156.932,50.5482 161.5,53C 168.791,60.0154 169.291,67.5154 163,75.5C 161.385,76.3862 159.885,77.3862 158.5,78.5C 153.659,80.1517 148.659,80.8183 143.5,80.5C 138.509,79.3368 134.509,76.6701 131.5,72.5C 129.977,69.3652 129.31,66.0318 129.5,62.5C 131.861,62.3259 134.194,61.9926 136.5,61.5C 137.203,63.6287 138.203,65.6287 139.5,67.5C 139.5,68.1667 139.5,68.8333 139.5,69.5C 138.453,70.0778 138.62,70.7445 140,71.5C 140.399,71.2716 140.565,70.9382 140.5,70.5C 146.776,73.7668 152.443,73.1001 157.5,68.5C 158.295,64.406 156.962,61.2393 153.5,59C 146.935,57.2279 141.602,53.7279 137.5,48.5C 136.238,43.8479 136.238,39.1812 137.5,34.5C 144.061,26.6037 152.394,24.1037 162.5,27C 168.246,29.2453 171.58,33.4119 172.5,39.5C 169.562,40.4891 166.562,41.1558 163.5,41.5C 162.026,34.4207 157.692,31.9207 150.5,34C 145.743,36.6008 144.409,40.4341 146.5,45.5 Z"/></g>
<g><path style="opacity:0.396" fill="#8da876" d="M 159.5,8.5 C 162.542,8.73292 165.208,9.73292 167.5,11.5C 164.458,11.2671 161.792,10.2671 159.5,8.5 Z"/></g>
<g><path style="opacity:0.004" fill="#000000" d="M 169.5,10.5 C 168.833,9.16667 168.833,9.16667 169.5,10.5 Z"/></g>
<g><path style="opacity:0.004" fill="#000000" d="M 169.5,10.5 C 170.833,11.1667 170.833,11.1667 169.5,10.5 Z"/></g>
<g><path style="opacity:0.004" fill="#000000" d="M 176.5,14.5 C 175.833,13.1667 175.833,13.1667 176.5,14.5 Z"/></g>
<g><path style="opacity:0.004" fill="#000000" d="M 176.5,14.5 C 177.833,15.1667 177.833,15.1667 176.5,14.5 Z"/></g>
<g><path style="opacity:0.004" fill="#000000" d="M 179.5,16.5 C 180.833,17.1667 180.833,17.1667 179.5,16.5 Z"/></g>
<g><path style="opacity:0.18" fill="#aec695" d="M 5.5,5.5 C 6.83333,5.5 8.16667,5.5 9.5,5.5C 8.5,6.16667 7.5,6.83333 6.5,7.5C 6.3334,24.5033 6.50006,41.5033 7,58.5C 7.69596,61.4781 8.19596,64.4781 8.5,67.5C 7.11274,65.1234 6.27941,62.4568 6,59.5C 5.50006,41.5031 5.33339,23.5031 5.5,5.5 Z"/></g>
<g><path style="opacity:0.004" fill="#000000" d="M 186.5,23.5 C 185.833,22.1667 185.833,22.1667 186.5,23.5 Z"/></g>
<g><path style="opacity:0.004" fill="#000000" d="M 186.5,23.5 C 187.167,23.5 187.5,23.8333 187.5,24.5C 187.167,24.1667 186.833,23.8333 186.5,23.5 Z"/></g>
<g><path style="opacity:0.004" fill="#000000" d="M 187.5,24.5 C 188.833,25.1667 188.833,25.1667 187.5,24.5 Z"/></g>
<g><path style="opacity:1" fill="#88bf57" d="M 185.5,25.5 C 190.885,30.6061 193.885,36.9394 194.5,44.5C 194.167,44.5 193.833,44.5 193.5,44.5C 193.5,43.8333 193.5,43.1667 193.5,42.5C 192.606,39.989 191.606,37.489 190.5,35C 187.631,32.4269 185.964,29.2603 185.5,25.5 Z"/></g>
<g><path style="opacity:0.004" fill="#000000" d="M 190.5,29.5 C 191.833,30.1667 191.833,30.1667 190.5,29.5 Z"/></g>
<g><path style="opacity:0.361" fill="#8ba86b" d="M 137.5,34.5 C 136.238,39.1812 136.238,43.8479 137.5,48.5C 136.883,48.3893 136.383,48.056 136,47.5C 135.833,45.6667 135.667,43.8333 135.5,42C 135.3,39.1345 135.967,36.6345 137.5,34.5 Z"/></g>
<g><path style="opacity:0.392" fill="#95b774" d="M 127.5,36.5 C 128.451,37.9187 128.784,39.5853 128.5,41.5C 125.14,41.6159 121.807,41.9492 118.5,42.5C 118.5,41.5 118.5,40.5 118.5,39.5C 119.151,40.0906 119.818,40.7573 120.5,41.5C 122.747,40.6258 125.08,40.2924 127.5,40.5C 127.5,39.1667 127.5,37.8333 127.5,36.5 Z"/></g>
<g><path style="opacity:0.514" fill="#819e63" d="M 82.5,42.5 C 80.4855,43.9238 78.1522,44.5905 75.5,44.5C 77.5145,43.0762 79.8478,42.4095 82.5,42.5 Z"/></g>
<g><path style="opacity:0.788" fill="#3b6c10" d="M 193.5,44.5 C 193.833,44.5 194.167,44.5 194.5,44.5C 195.812,62.2943 195.812,79.9609 194.5,97.5C 194.5,97.1667 194.5,96.8333 194.5,96.5C 193.515,79.2436 193.181,61.9102 193.5,44.5 Z"/></g>
<g><path style="opacity:0.078" fill="#778369" d="M 136.5,61.5 C 136.56,60.9569 136.893,60.6236 137.5,60.5C 138.635,62.7067 139.301,65.0401 139.5,67.5C 138.203,65.6287 137.203,63.6287 136.5,61.5 Z"/></g>
<g><path style="opacity:1" fill="#8fc459" d="M 102.5,56.5 C 105.167,57.5 107.833,58.5 110.5,59.5C 114.5,63.5 114.5,67.5 110.5,71.5C 106.888,72.5114 103.221,72.6781 99.5,72C 98.0577,71.6232 97.0577,70.7899 96.5,69.5C 99.9767,71.2585 103.643,71.7585 107.5,71C 106.663,69.9887 106.33,68.8221 106.5,67.5C 108.144,67.2865 109.644,67.6198 111,68.5C 111.667,66.5 111.667,64.5 111,62.5C 107.945,60.5794 105.112,58.5794 102.5,56.5 Z"/></g>
<g><path style="opacity:1" fill="#89bf53" d="M 94.5,66.5 C 93.5489,65.0813 93.2155,63.4147 93.5,61.5C 90.4824,61.7038 87.4824,62.0371 84.5,62.5C 84.7276,68.5306 87.0609,73.5306 91.5,77.5C 88.5642,75.7447 85.7309,73.7447 83,71.5C 82.586,68.9696 82.7527,66.303 83.5,63.5C 82.5,62.6667 81.5,61.8333 80.5,61C 85.0677,61.0218 89.7344,60.8551 94.5,60.5C 94.5,62.5 94.5,64.5 94.5,66.5 Z"/></g>
<g><path style="opacity:1" fill="#7fa856" d="M 129.5,62.5 C 129.31,66.0318 129.977,69.3652 131.5,72.5C 130.504,72.5858 129.671,72.2524 129,71.5C 128.195,68.3035 128.362,65.3035 129.5,62.5 Z"/></g>
<g><path style="opacity:0.004" fill="#000000" d="M 8.5,72.5 C 9.83333,73.1667 9.83333,73.1667 8.5,72.5 Z"/></g>
<g><path style="opacity:0.004" fill="#000000" d="M 12.5,78.5 C 11.8333,77.1667 11.8333,77.1667 12.5,78.5 Z"/></g>
<g><path style="opacity:0.004" fill="#000000" d="M 12.5,78.5 C 13.1667,78.5 13.5,78.8333 13.5,79.5C 13.1667,79.1667 12.8333,78.8333 12.5,78.5 Z"/></g>
<g><path style="opacity:0.004" fill="#000000" d="M 13.5,79.5 C 13.8333,79.5 14.1667,79.5 14.5,79.5C 14.3147,80.1701 13.9813,80.1701 13.5,79.5 Z"/></g>
<g><path style="opacity:0.482" fill="#8db06c" d="M 46.5,79.5 C 51.453,80.3292 56.453,80.6625 61.5,80.5C 57.3537,81.647 53.0204,81.8136 48.5,81C 47.5842,80.7216 46.9175,80.2216 46.5,79.5 Z"/></g>
<g><path style="opacity:0.314" fill="#9bbd78" d="M 116.5,77.5 C 115.152,79.4803 113.152,80.647 110.5,81C 108.333,81.1667 106.167,81.3333 104,81.5C 101.39,81.4668 99.223,80.8001 97.5,79.5C 104.079,81.1421 110.412,80.4755 116.5,77.5 Z"/></g>
<g><path style="opacity:0.345" fill="#afcf8c" d="M 158.5,78.5 C 157.653,79.9663 156.32,80.7996 154.5,81C 150.642,81.8099 146.976,81.6433 143.5,80.5C 148.659,80.8183 153.659,80.1517 158.5,78.5 Z"/></g>
<g><path style="opacity:0.004" fill="#000000" d="M 15.5,82.5 C 14.8333,81.1667 14.8333,81.1667 15.5,82.5 Z"/></g>
<g><path style="opacity:0.004" fill="#000000" d="M 15.5,82.5 C 16.1667,82.5 16.5,82.8333 16.5,83.5C 16.1667,83.1667 15.8333,82.8333 15.5,82.5 Z"/></g>
<g><path style="opacity:0.004" fill="#000000" d="M 16.5,83.5 C 17.1667,83.5 17.5,83.8333 17.5,84.5C 17.1667,84.1667 16.8333,83.8333 16.5,83.5 Z"/></g>
<g><path style="opacity:0.004" fill="#000000" d="M 17.5,84.5 C 18.8333,85.1667 18.8333,85.1667 17.5,84.5 Z"/></g>
<g><path style="opacity:0.004" fill="#000000" d="M 21.5,87.5 C 22.8333,88.1667 22.8333,88.1667 21.5,87.5 Z"/></g>
<g><path style="opacity:0.004" fill="#000000" d="M 27.5,90.5 C 27.5,90.8333 27.5,91.1667 27.5,91.5C 26.8299,91.0187 26.8299,90.6853 27.5,90.5 Z"/></g>
<g><path style="opacity:0.004" fill="#000000" d="M 27.5,91.5 C 28.8333,92.1667 28.8333,92.1667 27.5,91.5 Z"/></g>
<g><path style="opacity:1" fill="#76cb1b" d="M 193.5,42.5 C 193.5,43.1667 193.5,43.8333 193.5,44.5C 193.181,61.9102 193.515,79.2436 194.5,96.5C 146.5,96.5 98.5,96.5 50.5,96.5C 97.6637,95.5012 144.997,95.1679 192.5,95.5C 192.17,77.6588 192.503,59.9921 193.5,42.5 Z"/></g>
<g><path style="opacity:0.596" fill="#98b973" d="M 45.5,96.5 C 47.1667,96.5 48.8333,96.5 50.5,96.5C 98.5,96.5 146.5,96.5 194.5,96.5C 194.5,96.8333 194.5,97.1667 194.5,97.5C 171.612,98.1567 148.278,98.49 124.5,98.5C 101.833,98.3333 79.1667,98.1667 56.5,98C 52.6437,97.8227 48.977,97.3227 45.5,96.5 Z"/></g>
</svg>

<svg xmlns="http://www.w3.org/2000/svg" style="shape-rendering:geometricPrecision;text-rendering:geometricPrecision;image-rendering:optimizeQuality;fill-rule:evenodd;clip-rule:evenodd" viewBox="0 0 200 105"><path d="M5.5 5.5c-.667-1.333-.667-1.333 0 0Z" style="opacity:.004"/><path fill="#bbdf9b" d="M9.5 5.5c45.668-.167 91.335 0 137 .5 4.267.19 8.267 1.023 12 2.5a5980.117 5980.117 0 0 0-152-1l3-2Z" style="opacity:.634"/><path fill="#79c332" d="M6.5 7.5c50.686-.31 101.352.023 152 1h1c2.292 1.767 4.958 2.767 8 3h2a167.12 167.12 0 0 0 12 8.5c1.939 1.432 3.272 3.265 4 5.5.464 3.76 2.131 6.927 5 9.5a106.129 106.129 0 0 1 3 7.5 702.727 702.727 0 0 0-1 53c-47.503-.332-94.836.001-142 1h-5a57.319 57.319 0 0 1-18-6 170.87 170.87 0 0 1-13-11 50.535 50.535 0 0 1-6-12 70.543 70.543 0 0 0-1.5-9c-.5-16.997-.667-33.997-.5-51Zm76 35c-2.652-.09-4.986.576-7 2-1.869-1.534-3.202-3.534-4-6-7.122-4.92-14.456-5.253-22-1a6.541 6.541 0 0 1-3 3c-.61 1.934-1.61 3.6-3 5-2.75 6.746-2.584 13.413.5 20 4.968 5.615 11.135 7.448 18.5 5.5a58.472 58.472 0 0 0 9.5-8.5c2.63.709 5.13 1.709 7.5 3-1.112 1.92-2.446 3.586-4 5-.359 1.871-1.359 3.371-3 4.5-3.49 2.412-7.157 4.245-11 5.5a75.84 75.84 0 0 1-15-1c-12.97-7.77-17.136-19.104-12.5-34C42.268 27.297 55.768 21.797 74.5 29c4.87 3.248 7.537 7.748 8 13.5Zm39-13c.996-.086 1.829.248 2.5 1 1.459 1.932 2.625 3.932 3.5 6v4a15.42 15.42 0 0 0-7 1 31.12 31.12 0 0 0-2-2c-3.043-6.002-7.71-7.502-14-4.5-5.333 4-5.333 8 0 12l11 5c1.563.759 2.563 1.926 3 3.5 2.855 2.201 4.189 5.201 4 9-.128 5.252-2.128 9.586-6 13-6.088 2.975-12.421 3.642-19 2l-6-2c-4.44-3.97-6.772-8.97-7-15 2.982-.463 5.982-.796 9-1-.284 1.915.049 3.581 1 5-.073 1.527.594 2.527 2 3 .558 1.29 1.558 2.123 3 2.5 3.721.678 7.388.511 11-.5 4-4 4-8 0-12l-8-3c-11.295-5.54-13.628-13.54-7-24 .578 1.047 1.245.88 2-.5-.228-.399-.562-.565-1-.5 3.501-3.996 8.001-5.996 13.5-6 2.856.371 5.689.871 8.5 1.5 1.442.377 2.442 1.21 3 2.5Zm25 16c-1.047.578-.88 1.245.5 2 .399-.228.565-.562.5-1a132.423 132.423 0 0 1 14 6.5c7.291 7.015 7.791 14.515 1.5 22.5a30.818 30.818 0 0 0-4.5 3c-4.841 1.652-9.841 2.318-15 2-4.991-1.163-8.991-3.83-12-8-1.523-3.135-2.19-6.468-2-10a51.648 51.648 0 0 0 7-1 23.326 23.326 0 0 0 3 6v2c-1.047.578-.88 1.245.5 2 .399-.228.565-.562.5-1 6.276 3.267 11.943 2.6 17-2 .795-4.094-.538-7.26-4-9.5-6.565-1.772-11.898-5.272-16-10.5-1.262-4.652-1.262-9.319 0-14 6.561-7.896 14.894-10.396 25-7.5 5.746 2.245 9.08 6.412 10 12.5a43.285 43.285 0 0 1-9 2c-1.474-7.08-5.808-9.58-13-7.5-4.757 2.6-6.091 6.434-4 11.5Z" style="opacity:1"/><path fill="#8da876" d="M159.5 8.5c3.042.233 5.708 1.233 8 3-3.042-.233-5.708-1.233-8-3Z" style="opacity:.396"/><path d="M169.5 10.5c-.667-1.333-.667-1.333 0 0ZM169.5 10.5c1.333.667 1.333.667 0 0ZM176.5 14.5c-.667-1.333-.667-1.333 0 0ZM176.5 14.5c1.333.667 1.333.667 0 0ZM179.5 16.5c1.333.667 1.333.667 0 0Z" style="opacity:.004"/><path fill="#aec695" d="M5.5 5.5h4l-3 2c-.167 17.003 0 34.003.5 51a70.543 70.543 0 0 1 1.5 9c-1.387-2.377-2.22-5.043-2.5-8-.5-17.997-.667-35.997-.5-54Z" style="opacity:.18"/><path d="M186.5 23.5c-.667-1.333-.667-1.333 0 0ZM186.5 23.5c.667 0 1 .333 1 1l-1-1ZM187.5 24.5c1.333.667 1.333.667 0 0Z" style="opacity:.004"/><path fill="#88bf57" d="M185.5 25.5c5.385 5.106 8.385 11.44 9 19h-1v-2a106.129 106.129 0 0 0-3-7.5c-2.869-2.573-4.536-5.74-5-9.5Z" style="opacity:1"/><path d="M190.5 29.5c1.333.667 1.333.667 0 0Z" style="opacity:.004"/><path fill="#8ba86b" d="M137.5 34.5c-1.262 4.681-1.262 9.348 0 14-.617-.11-1.117-.444-1.5-1l-.5-5.5c-.2-2.865.467-5.365 2-7.5Z" style="opacity:.361"/><path fill="#95b774" d="M127.5 36.5c.951 1.419 1.284 3.085 1 5-3.36.116-6.693.45-10 1v-3a31.12 31.12 0 0 1 2 2 15.42 15.42 0 0 1 7-1v-4Z" style="opacity:.392"/><path fill="#819e63" d="M82.5 42.5c-2.014 1.424-4.348 2.09-7 2 2.014-1.424 4.348-2.09 7-2Z" style="opacity:.514"/><path fill="#3b6c10" d="M193.5 44.5h1c1.312 17.794 1.312 35.46 0 53v-1a690.268 690.268 0 0 1-1-52Z" style="opacity:.788"/><path fill="#778369" d="M136.5 61.5c.06-.543.393-.876 1-1a18.403 18.403 0 0 1 2 7 23.326 23.326 0 0 1-3-6Z" style="opacity:.078"/><path fill="#8fc459" d="m102.5 56.5 8 3c4 4 4 8 0 12-3.612 1.011-7.279 1.178-11 .5-1.442-.377-2.442-1.21-3-2.5 3.477 1.758 7.143 2.258 11 1.5-.837-1.011-1.17-2.178-1-3.5 1.644-.213 3.144.12 4.5 1 .667-2 .667-4 0-6a93.71 93.71 0 0 1-8.5-6Z" style="opacity:1"/><path fill="#89bf53" d="M94.5 66.5c-.951-1.419-1.284-3.085-1-5-3.018.204-6.018.537-9 1 .228 6.03 2.56 11.03 7 15a69.753 69.753 0 0 1-8.5-6c-.414-2.53-.247-5.197.5-8l-3-2.5c4.568.022 9.234-.145 14-.5v6Z" style="opacity:1"/><path fill="#7fa856" d="M129.5 62.5c-.19 3.532.477 6.865 2 10-.996.086-1.829-.248-2.5-1-.805-3.197-.638-6.197.5-9Z" style="opacity:1"/><path d="M8.5 72.5c1.333.667 1.333.667 0 0ZM12.5 78.5c-.667-1.333-.667-1.333 0 0ZM12.5 78.5c.667 0 1 .333 1 1l-1-1ZM13.5 79.5h1c-.185.67-.519.67-1 0Z" style="opacity:.004"/><path fill="#8db06c" d="M46.5 79.5a75.84 75.84 0 0 0 15 1c-4.146 1.147-8.48 1.314-13 .5-.916-.278-1.583-.778-2-1.5Z" style="opacity:.482"/><path fill="#9bbd78" d="M116.5 77.5c-1.348 1.98-3.348 3.147-6 3.5l-6.5.5c-2.61-.033-4.777-.7-6.5-2 6.579 1.642 12.912.975 19-2Z" style="opacity:.314"/><path fill="#afcf8c" d="M158.5 78.5c-.847 1.466-2.18 2.3-4 2.5-3.858.81-7.524.643-11-.5 5.159.318 10.159-.348 15-2Z" style="opacity:.345"/><path d="M15.5 82.5c-.667-1.333-.667-1.333 0 0ZM15.5 82.5c.667 0 1 .333 1 1l-1-1ZM16.5 83.5c.667 0 1 .333 1 1l-1-1ZM17.5 84.5c1.333.667 1.333.667 0 0ZM21.5 87.5c1.333.667 1.333.667 0 0ZM27.5 90.5v1c-.67-.481-.67-.815 0-1ZM27.5 91.5c1.333.667 1.333.667 0 0Z" style="opacity:.004"/><path fill="#76cb1b" d="M193.5 42.5v2a690.268 690.268 0 0 0 1 52h-144a5041.776 5041.776 0 0 1 142-1 702.727 702.727 0 0 1 1-53Z" style="opacity:1"/><path fill="#98b973" d="M45.5 96.5h149v1c-22.888.657-46.222.99-70 1l-68-.5c-3.856-.177-7.523-.677-11-1.5Z" style="opacity:.596"/></svg>
